X: 238
T: Happy the Man Who Feareth God
%%combinevoices 1
T: (also known as Happy Who in God's Fear Doth Stay)
C: Words: Martin Luther, 1524.  Translated by Richard Massie, 1854. 
C: Music: 'Wo Gott Zum Haus (Walter)' from Walter's Geistliche Gesangbüchlein, 1524. 
C: Setting: Bartolomäus Gesius, 1605.
C: copyright: public domain.  This score is a part of the Open Hymnal Project, 2009 Revision.
M: 4/4 % time signature
L: 1/4 % default length
%%staves (S1V1 S1V2) | (S2V1 S2V2) 
V: S1V1 clef=treble 
%%MIDI beat 127 125 110 1
V: S1V2 
%%MIDI beat 127 125 110 1
V: S2V1 clef=bass 
%%MIDI beat 127 125 110 1
V: S2V2 
%%MIDI beat 127 125 110 1
K: D % key signature
%
%%MIDI program 1 0 % Piano 1
%%MIDI program 2 0 % Piano 1
%%MIDI program 3 0 % Piano 1
%%MIDI program 4 0 % Piano 1
%
% 1
[V: S1V1] [Q:1/4=100] D2 A A | F A (B/ d) c/ | d2 z d | B A B A |
w: 1.~Hap- py the man who fear- * eth God, Whose feet His ho- ly 
w: 2.~Thy wife shall, like a fruit- * ful vine, Fill all thy house with 
w: 3.~Lo! to the man these bless- * ings cleave Who in God's ho- ly 
w: 4.~Out of Mount Zi- on God * shall send, And crown with joy thy 
w: 5.~He shall be with thee in * thy ways, And give thee health and 
[V: S1V2]  z D E F | D F G A | F2 x A | G F G E |
[V: S2V1]  A,2 C D | A, D3/2 D/ E | D2 z F | D D D =C |
[V: S2V2]  D,2 A,, D, | D, D, G,/B,/ A, | D,2 x D, | G, D, G,, A,, |
% 5
[V: S1V1]  G/F/ E D2 | z A A G | (F E/) B A/ G |
w: ways * have trod; Thine own good hand * shall nour- ish 
w: clus- * ters fine; Thy child- ren all * be fresh and 
w: fear * doth live; From him the an- * cient curse hath 
w: lat- * ter end; That thou Je- ru- * sa- lem mayst 
w: length * of days Yea, thou shalt child- * ren's child- ren 
[V: S1V2]  (E/ D) ^C/ D2 | x F F E | D3/4C//B,/ E/ D E |
[V: S2V1]  C/A,/ A, A,2 | z D D B, | B, G, B,//C//D/ D/C/ |
[V: S2V2]  =C,/D,/ A,, D,2 | x D, D, E, | B,, E, G,/F,/ E, |
% 9
[V: S1V1]  F2 z/ !sintro!B/ d- | d/ c/ B e (d/e/- | e/d//c//B/) B/ A2 !eintro!|]
w: thee, And well  * and hap- py shalt *  * * * * thou be. 
w: sound, Like ol- * ive\- plants thy ta- * * * * * ble round. 
w: fled By A- * dam's race in- her- * * * * * it- ed. 
w: see, In fa- * vor and pros- per- * * * * * it- y. 
w: see, And peace  * on Is- ra- el *  * * * * shall be. 
[V: S1V2]  A,2 x/ G/ A | A G2 F/G/- | G/ F E/ C2 |]
[V: S2V1]  D2 z/ D/ F | E (E3/2 D//C//) B,/ (B,/ | A,3/2) ^G,/ A,2 |]
[V: S2V2]  D,2 x/ G,/ D, | A, E,/F,/G,/A,/ B,/ (E,/ | C,/D,/E,/) E,/ A,,2 |]
% 12

%%newpage
%%%%%%%%%%%%%%%%%%%%%%%%%%%%%%%%%%%%
% 
% This file is a part of the Open Hymnal Project to create a freely 
% distributable, downloadable database of Christian hymns, spiritual 
% songs, and prelude/postlude music.  This music is to be distributed 
% as complete scores (words and music), using all accompaniment parts, 
% in formats that are easily accessible on most computer OS's and which
% can be freely modified by anyone.  The current format of choice is the 
% "ABC Plus" format, favored by folk music distributors on the internet.
% All scores will also be converted into pdf, MIDI, and mp3 formats.
% Some advanced features of ABC Plus are used, and for accurate 
% translation to a printed score, please consider using "abcm2ps" 
% version 4.10 or later.  I am doing my best to create a final product
% that is "Hymnal-quality", and could feasibly be used as the basis for
% a printed church hymnal.
%
% The maintainer of the Open Hymnal Project is Brian J. Dumont (brian 
% dot j dot dumont at gmail dot com).  I have gone through serious efforts 
% to make sure that no copyright mistakes make it into this database.
% If I am in error, please inform me as soon as possible.
%
% This entire effort has used only free software, and I am indebted to 
% the efforts of many other individuals, including the authors of
% the various ABC and ABC Plus software.  Undoubtedly, I am also indebted 
% to all of the great Christians who wrote these hymns.
%
% This database comes with no guarantees whatsoever.
%
% I would love to get email from anyone who uses the Open Hymnal, and
% I will take requests for hymns to add.  My decision of whether to 
% add a hymn will be based on these criteria (in the following order):
% 1) It must be in the public domain or freely distributable
% 2) It must be a Christian piece
% 3) Whether I have access to a printed copy of the music (surprisingly,
%    a MIDI file is usually a terrible source)
% 4) Whether I like the hymn :)
%
% If you would like to contribute to the Open Hymnal Project, please 
% send an email to me, I would love the help!  PLEASE EMAIL ME IF YOU 
% FIND ANY MISTAKES, no matter how small.  I want to ensure that every 
% slur, stem, hyphenation, and punctuation mark is correct; and I'm sure 
% that there must be mistakes right now.
%
% Open Hymnal Project, 2009 Edition
%
%%%%%%%%%%%%%%%%%%%%%%%%%%%%%%%%%%%%

% PAGE LAYOUT
%
%%pagewidth	21.6000cm
%%pageheight	27.9000cm
%%scale		0.75000000
%%staffsep	1.60000cm
%%exprabove	false
%%measurebox	false
%%header "NEW OBEDIENCE		239"
%%footer Ps 146:5, Job 28:28, Acts 9:31		8 8 8 8
%OHSCRIP Ps 146:5, Job 28:28, Acts 9:31
%OHTOPICS {Adam (first/second - see also Guidance, Invitation [ours to God], Repentance)}, {Children (see also God's Children - the Faithful) [2]}, {Christian Home/Family}, {Christian Life}, {Discipleship}, {Fear of the Lord}, {God, Care of}, {Israel [5]}, {Obedience}
%OHCATEGORY NEW OBEDIENCE
%OHMETRICAL 8 8 8 8
%OHCOMPLEXITY 1
%OHCOMPOSER from Klug's Geistliche Lieder, Wittenberg, 1533
%OHARRANGER unknown
%OHAUTHOR Luther, Martin (1483-1546)
%OHTRANSLATOR Massie, Richard (1800-1887)
%%postscript /st { moveto -8 0 rmoveto 0 8 rlineto 4 0 rlineto stroke } def
%%postscript /nd { moveto -8 0 rmoveto 0 8 rlineto -4 0 rlineto stroke } def
%%deco sintro 6 st 6 0 0 
%%deco eintro 6 nd 6 0 0 

